X:1
T:Veux tu ton mal
T:Veux tu ton mal
T:Jean de Castro
T:Source : Livre de chansons à 3 parties---Paris---A.le Roy & R.Ballard---1575. Editor : André Vierendeels (21/09/15). 
T:Notes : Original clefs : G2, C1, C3 See also de "responce" to this chanson : "Le voulez vous"(de Castro)
C:Jean de Castro
%%score [ 1 2 3 ]
L:1/8
Q:1/4=76
M:2/2
K:C
V:1 treble nm="Superius 1" snm="S 1"
V:2 treble nm="Superius 2" snm="S 2"
V:3 treble-8 nm="Tenor" snm="T"
V:1
 z8 | z8 | d8 | A4 c4 | G2 g4 d2 | f4 c4- | c2 d2 e2 f2 | g4 d4 | e4 g4 | f6 f2 | e8 | z2 d2 e4- | %12
w: ||Veux|tu ton|mal, veux tu|ton mal|_ _ _ _|* et|le mien|se- cou-|rir,|trou- ve|
 e4 d4 | f2 f2 d4- | d4 e4 | A4 z2 e2 | f6 f2 | e4 d4 | ^c8 | z2 A2 A2 A2 | d4 z2 G2 | G2 G2 c4 | %22
w: _ moy-|en, trou- ve|_ moy-|en, qu'un|jour en-|tre deux|draps|nous nous puis-|sions, nous|nous puis- sions|
 z2 A2 A2 A2 | ^c2 c2 d4 | z2 A2 A2 A2 | ^c2 c2 d4 | z2 d2 ^c4 | d4 e4 | z4 d4 | f4 e4 | d4 ^c4 | %31
w: em- bras- ser|bras à bras,|em- bras- ser|bras à bras,|et je|suis seur|qu'ain-|si pour-|rons gue-|
 d4 A4 | A4 A4 | c4 B4 | d6 e2 | d4 ^c4 | d8 | z4 A4 | B4 B4 | ^c4 e4 | f6 e2 | d4 ^c4 | %42
w: rir, et|je suis|seur qu'ain-|si pour-|rons gue-|rir,|et|je suis|seur qu'ain-|si pour-|rons gue-|
 !fermata!d8 |] %43
w: rir.|
V:2
 z4 A4- | A4 E4 | G4 D4- | D4 A4 | E4 G4 | F2 G2 A2 B2 | c4 G4- | G2 A2 B4 | c8 | A4 d4- | d4 ^c4 | %11
w: Veux|_ tu|ton mal,|_ veux|tu ton|mal _ _ _|_ et-|_ _ _|le|mien se-|* cou-|
 d2 A2 c4- | c4 B4 | A4 z2 A2 | G4 E4 | ^F4 ^c4 | d4 A4 | c4 B4 | A2 E2 E2 E2 | A4 z2 D2 | %20
w: rir, trou- ve|_ moy-|en, trou-|ve moy-|en, qu'un|jour en-|tre deux|draps, nous nous puis-|sions, nous|
 D2 D2 G4 | z2 C2 C2 C2 | F2 E2 F2 D2 | E2 E2 G4 | z2 E2 F2 D2 | E2 E2 G4 | z2 F2 E4 | ^F4 G4 | %28
w: nous puis- sions,|nous nous puis-|sions em- bras- ser|brasà à bras,|em- bras- ser|bras à bras,|et je|suis seur|
 z4 B4 | c6 B2 | A4 ^G4 | A4 F4 | E4 ^F4 | G4 G4 | D4 G4 | F4 E4 | G4 G4 | ^F4 F4 | G4 G4 | A8 | %40
w: qu'ain-|si pour-|rons gue-|rir, et|je suis|seur qu'ain-|si pour-|rons gue-|rir, et|je suis|seur qu'ain-|si|
 z2 A2 A2 G2 | F4 E4 | !fermata!^F8 |] %43
w: qu'ain- si pour-|rons gue-|rir.|
V:3
 d8 | A4 c4 | G8 | z8 | z4 z2 g2 | d4 f4 | c6 d2 | e2 f2 g4 | z4 c4 | f4 d4 | A6 A2 | d4 z2 a2 | %12
w: Veux|tu ton|mal,||veux|tu ton|mal, veux|tu ton mal|et|le mien|se- cou-|rir, trou-|
 e4 g4 | d8 | z8 | z4 a4 | d4 d4 | c4 G4 | A4 z2 A2 | A2 A2 d4 | z2 G2 G2 G2 | c4 z2 A2 | %22
w: ve moy-|en,||qu'un|jour en-|tre deux|draps, nous|nous puis- sions,|nous nous puis-|sions em-|
 d2 ^c2 d2 d2 | A4 z2 G2 | d2 ^c2 d2 d2 | A4 z2 G2 | d4 A4 | d4 z2 c2 | g4 g4 | a2 a2 a2 g2 | %30
w: bras- ser bras à|bras, em-|bras- ser bras à|bras, et|je suis|seur, et|je suis|seur qu'ain- si pour-|
 f4 e4 | d4 d4 | ^c4 d4 | e8 | z8 | z4 A4 | G4 G4 | d8 | z8 | z4 A4 | F6 c2 | d4 A4 | %42
w: rons gue-|rir, et|je suis|seur,||et|je suis|seur||qu'ain-|si pour-|rons gue-|
 !fermata!d8 |] %43
w: rir.|

